!!!!SEGMENT: Ric2015-Salve_regina.krn
!!!id: Ric2015
!!!AGN: Motet
!!!voices: 4-5
!!!COM: Jean Richafort
!!!OTL: Salve regina
**kern	**kern	**kern	**kern	**kern
*part5	*part4	*part3	*part2	*part1
*staff5	*staff4	*staff3	*staff2	*staff1
*I"Bassus	*I"Tenor II	*I"Tenor I	*I"Altus	*I"Superius
*I'B	*I'T. II	*I'T. I	*I'A	*I'S
*clefF4	*clefGv2	*clefGv2	*clefGv2	*clefG2
*k[b-]	*k[b-]	*k[b-]	*k[b-]	*k[b-]
*F:	*F:	*F:	*F:	*F:
*M2/1	*M2/1	*M2/1	*M2/1	*M2/1
*met(C|)	*met(C|)	*met(C|)	*met(C|)	*met(C|)
!!section: Prima pars: Salve regina
!!!OMD: Prima pars: Salve regina
1.D	2.D	0r	0r	0r
.	4E	.	.	.
.	4F	.	.	.
.	4G	.	.	.
4C	[2A	.	.	.
4BB-y	.	.	.	.
=1	=1	=1	=1	=1
2C	4A]	0r	0r	0r
.	4G	.	.	.
2E-i	1G	.	.	.
1D	.	.	.	.
.	2F#i	.	.	.
=2	=2	=2	=2	=2
1GG	1G	2r	1.d	2.d
.	.	2.D	.	.
.	.	.	.	4e
1r	1r	.	.	4f
.	.	4E	.	4g
.	.	4F	4c	[2a
.	.	4G	4B-y	.
=3	=3	=3	=3	=3
0r	0r	4A	2c	4a]
.	.	4B-y	.	4g
.	.	2c	2e-i	1g
.	.	2G	1d	.
.	.	[2B-y	.	2f
=4	=4	=4	=4	=4
2r	1r	2B-]	1G	1g
1G	.	4A	.	.
.	.	4G	.	.
.	2r	1A	1r	1r
2F	[2d	.	.	.
=5	=5	=5	=5	=5
1E	2d]	1G	0r	0r
.	2c	.	.	.
2.D	1B-y	1d	.	.
4E	.	.	.	.
=6	=6	=6	=6	=6
4F	2A	1r	0r	0r
4G	.	.	.	.
2.A	1c	.	.	.
.	.	2r	.	.
4G	.	.	.	.
[2G	2B-y	[2d	.	.
=7	=7	=7	=7	=7
4G]	1A	2d]	1r	0r
4E	.	.	.	.
2F	.	2c	.	.
1G	1G	2.B-y	2r	.
.	.	.	[2g	.
.	.	8AL	.	.
.	.	8GJ	.	.
=8	=8	=8	=8	=8
0r	1D	1d	2g]	2r
.	.	.	2f	1dd
.	1r	1A	1e	.
.	.	.	.	2cc
=9	=9	=9	=9	=9
0r	0r	2r	2.d	1b-y
.	.	1d	.	.
.	.	.	4e	.
.	.	.	4f	2a
.	.	.	4g	.
.	.	2c	[2a	[2cc
=10	=10	=10	=10	=10
0r	1r	2A	4a]	2cc]
.	.	.	4g	.
.	.	2B-y	1g	2b-y
.	2r	2c	.	1a
.	2D	2d	2f#i	.
=11	=11	=11	=11	=11
2r	2E	1G	1g	1g
2GG	2D	.	.	.
2AA	2.F	2r	1r	1r
2BB-y	.	2D	.	.
.	4G	.	.	.
=12	=12	=12	=12	=12
2C	2A	2E	1r	0r
2D	2.B-y	2F	.	.
2.E	.	1G	2r	.
.	4A	.	.	.
.	4B-y	.	2G	.
4D	4G	.	.	.
=13	=13	=13	=13	=13
2C	2c	2E	2A	1r
2BB-y	2d	2.F	2B-y	.
1F	1A	.	2c	2r
.	.	4G	.	.
.	.	4A	2d	2f
.	.	4F	.	.
=14	=14	=14	=14	=14
2E	2r	2c	2e	2g
1D	2D	2F	2.f	2a
.	2F	2r	.	2b-y
.	.	.	4d	.
2C	2E	2A	2e	2cc
=15	=15	=15	=15	=15
1D	2.F	2A	1.d	2a
.	.	2A	.	2.dd
.	4E	.	.	.
1GG	2D	2.B-y	.	.
.	.	.	.	4cc
.	[2d	.	2G	2b-y
.	.	8AL	.	.
.	.	8GJ	.	.
=16	=16	=16	=16	=16
0r	4d]	2F	1.d	2a
.	4c	.	.	.
.	2B-y	2G	.	1g
.	1A	1D	.	.
.	.	.	8dL	2f#i
.	.	.	8c	.
.	.	.	8B-y	.
.	.	.	8AJ	.
=17	=17	=17	=17	=17
1r	1G	2r	1B-y	0g
.	.	4G	.	.
.	.	4A	.	.
2.GG	1r	4B-y	1G	.
.	.	4c	.	.
.	.	[2d	.	.
4AA	.	.	.	.
=18	=18	=18	=18	=18
4BB-y	2.D	2d]	0r	0r
4C	.	.	.	.
1D	.	4c	.	.
.	4E	4B-y	.	.
.	4F	2A	.	.
.	4G	.	.	.
4C	[2A	[2c	.	.
4BB-y	.	.	.	.
=19	=19	=19	=19	=19
2C	4A]	4c]	0r	0r
.	4G	4B-y	.	.
2E	1G	4A	.	.
.	.	4G	.	.
1D	.	2A	.	.
.	2F#i	2D	.	.
=20	=20	=20	=20	=20
1GG	1G	2r	1.d	2.d
.	.	2.D	.	.
.	.	.	.	4e
1r	1r	.	.	4f
.	.	4E	.	4g
.	.	4F	4c	[2a
.	.	4G	4B-y	.
=21	=21	=21	=21	=21
0r	0r	4A	2c	4a]
.	.	4B-y	.	4g
.	.	2c	2e-i	1g
.	.	2G	1d	.
.	.	[2B-y	.	2f
=22	=22	=22	=22	=22
2r	1r	2B-]	1G	1g
1G	.	4A	.	.
.	.	4G	.	.
.	2r	1A	1r	1r
2F	[2d	.	.	.
=23	=23	=23	=23	=23
1E	2d]	1G	0r	0r
.	2c	.	.	.
2.D	1B-y	1d	.	.
4E	.	.	.	.
=24	=24	=24	=24	=24
4F	2A	1r	0r	0r
4G	.	.	.	.
2.A	1c	.	.	.
.	.	2r	.	.
4G	.	.	.	.
[2G	2B-y	[2d	.	.
=25	=25	=25	=25	=25
4G]	1A	2d]	1r	0r
4E	.	.	.	.
2F	.	2c	.	.
1G	1G	2.B-y	2r	.
.	.	.	[2g	.
.	.	8AL	.	.
.	.	8GJ	.	.
=26	=26	=26	=26	=26
0r	1D	1d	2g]	2r
.	.	.	2f	1dd
.	1r	1A	1e	.
.	.	.	.	2cc
=27	=27	=27	=27	=27
0r	0r	2r	2.d	1b-y
.	.	1d	.	.
.	.	.	4e	.
.	.	.	4f	2a
.	.	.	4g	.
.	.	2c	[2a	[2cc
=28	=28	=28	=28	=28
0r	1r	2A	4a]	2cc]
.	.	.	4g	.
.	.	2B-y	1g	2b-y
.	2r	2c	.	1a
.	2D	2d	2f#i	.
=29	=29	=29	=29	=29
2r	2E	1G	1g	1g
2GG	2D	.	.	.
2AA	2.F	2r	1r	1r
2BB-y	.	2D	.	.
.	4G	.	.	.
=30	=30	=30	=30	=30
2C	2A	2E	1r	0r
2D	2.B-y	2F	.	.
2.E-X	.	1G	2r	.
.	4A	.	.	.
.	4B-y	.	2G	.
4D	4G	.	.	.
=31	=31	=31	=31	=31
2C	2c	2E	2A	1r
2BB-y	2d	2.F	2B-y	.
1F	1A	.	2c	2r
.	.	4G	.	.
.	.	4A	2d	2f
.	.	4F	.	.
=32	=32	=32	=32	=32
2E	2r	2c	2e	2g
1D	2D	2F	2.f	2a
.	2F	2r	.	2b-y
.	.	.	4d	.
2C	2E	2A	2e	2cc
=33	=33	=33	=33	=33
1D	2.F	2A	1.d	2a
.	.	2A	.	2.dd
.	4E	.	.	.
1GG	2D	2.B-y	.	.
.	.	.	.	4cc
.	[2d	.	2G	2b-y
.	.	8AL	.	.
.	.	8GJ	.	.
=34	=34	=34	=34	=34
0r	4d]	2F	1.d	2a
.	4c	.	.	.
.	2B-y	2G	.	1g
.	1A	1D	.	.
.	.	.	8dL	2f#i
.	.	.	8c	.
.	.	.	8B-y	.
.	.	.	8AJ	.
=35	=35	=35	=35	=35
0r	0G	2r	0B-y	0g
.	.	2d	.	.
.	.	2e	.	.
.	.	[2d	.	.
=36	=36	=36	=36	=36
1G	0r	2d]	0r	0r
.	.	4c	.	.
.	.	4B-y	.	.
1F	.	2A	.	.
.	.	2d	.	.
=37	=37	=37	=37	=37
2.B-y	0r	4G	2r	0r
.	.	4A	.	.
.	.	4B-y	2d	.
4A	.	4c	.	.
2F	.	2d	4d	.
.	.	.	4c	.
[2G	.	[2e	4B-y	.
.	.	.	4A	.
=38	=38	=38	=38	=38
4G]	0r	4e]	2B-y	1r
4F	.	4d	.	.
2D	.	1d	2.A	.
1E	.	.	.	1g
.	.	.	4F	.
.	.	2c#i	4G	.
.	.	.	4A	.
=39	=39	=39	=39	=39
1D	2r	1d	4B-y	1f
.	.	.	4G	.
.	2.d	.	2A	.
1r	.	1r	2G	2.b-y
.	4c	.	.	.
.	4B-y	.	[2g	.
.	4A	.	.	4cc
=40	=40	=40	=40	=40
1r	2G	0r	4g]	4dd
.	.	.	4f	4ee-i
.	2B-y	.	4e	1dd
.	.	.	4d	.
2r	1A	.	1e	.
2AA	.	.	.	2cc#i
=41	=41	=41	=41	=41
2BB-y	1D	2r	0d	[0dd
2.D	.	2A	.	.
.	2r	2B-y	.	.
4C	.	.	.	.
4BB-y	2F	[2d	.	.
4AA	.	.	.	.
=42	=42	=42	=42	=42
2GG	2G	4d]	2r	1dd]
.	.	4c	.	.
2G	1B-y	4B-y	2d	.
.	.	4A	.	.
2E	.	2G	2e	2r
[2F	4A	2F	2c	2cc
.	4G	.	.	.
=43	=43	=43	=43	=43
2F]	2A	1.c	1f	2.cc
4E	2F	.	.	.
4D	.	.	.	4b-y
2C	4G	.	2e	2cc
.	4A	.	.	.
[2G	4B-y	4B-y	[2d	4dd
.	4c	4A	.	4cc
=44	=44	=44	=44	=44
4G]	1d	2G	4d]	4b-y
4A	.	.	4c	4a
2F	.	2A	2f	1a
1G	2r	1B-y	[1d	.
.	2G	.	.	2g
=45	=45	=45	=45	=45
1D	4F	1A	1d]	0a
.	4E	.	.	.
.	4F	.	.	.
.	4G	.	.	.
1F	2.A	1r	2r	.
.	.	.	[2c	.
.	4B-y	.	.	.
=46	=46	=46	=46	=46
2E	2G	1r	2c]	0r
2.D	2F	.	2B-y	.
.	1r	2r	1A	.
4C	.	.	.	.
2F	.	[2c	.	.
=47	=47	=47	=47	=47
2E	2r	2c]	1G	0r
2G	1G	2B-y	.	.
1D	.	2A	1r	.
.	2F	[2d	.	.
=48	=48	=48	=48	=48
2r	1E	2d]	1r	0r
1G	.	2c#i	.	.
.	2D	1d	2r	.
2F	[2d	.	2d	.
=49	=49	=49	=49	=49
2E	2d]	1G	2e	2r
2C	2c	.	1g	1cc
1G	1d	2r	.	.
.	.	[2G	2G	2b-y
=50	=50	=50	=50	=50
0r	1D	2G]	4A	1a
.	.	.	4G	.
.	.	2F	4A	.
.	.	.	4B-y	.
.	1r	2.E	2c	2g
.	.	.	2e	[2cc
.	.	8DL	.	.
.	.	8CJ	.	.
=51	=51	=51	=51	=51
1r	0r	2G	1d	2cc]
.	.	2G	.	2bnXi
2r	.	4A	1c	1cc
.	.	4B-y	.	.
2C	.	4c	.	.
.	.	4A	.	.
=52	=52	=52	=52	=52
4D	0r	4B-y	1r	2r
4E	.	4G	.	.
4F	.	1c	.	2f
4D	.	.	.	.
2E	.	.	2r	2g
2F	.	2F	2c	2a
=53	=53	=53	=53	=53
1.BB-y	2r	1F	2.d	2.b-y
.	2F	.	.	.
.	.	.	4c	8aL
.	.	.	.	8gJ
.	2G	1r	4B-y	2b-y
.	.	.	4A	.
2F	2A	.	[2d	[2a
=54	=54	=54	=54	=54
2G	2B-y	1r	2d]	4a]
.	.	.	.	4g
2E	2G	.	2c	1g
1D	1A	1F	[1d	.
.	.	.	.	2f#i
=55	=55	=55	=55	=55
1GG	0G	2.B-y	1d]	0g
.	.	4c	.	.
1r	.	4d	1B-y	.
.	.	4e-i	.	.
.	.	[2d	.	.
=56	=56	=56	=56	=56
1G	0r	2d]	0r	0r
.	.	4c	.	.
.	.	4B-y	.	.
1F	.	2A	.	.
.	.	2d	.	.
=57	=57	=57	=57	=57
2.B-y	0r	4G	2r	0r
.	.	4A	.	.
.	.	4B-y	2.d	.
4A	.	4c	.	.
2F	.	2d	.	.
.	.	.	4c	.
[2G	.	[2e	4B-y	.
.	.	.	4A	.
=58	=58	=58	=58	=58
4G]	0r	4e]	2B-y	1r
4F	.	4d	.	.
2D	.	1d	2.A	.
1E	.	.	.	1g
.	.	.	4F	.
.	.	2c#i	4G	.
.	.	.	4A	.
=59	=59	=59	=59	=59
1D	2r	1d	4B-y	1f
.	.	.	4G	.
.	2.d	.	2A	.
1r	.	1r	2G	2.b-y
.	4c	.	.	.
.	4B-y	.	[2g	.
.	4A	.	.	4cc
=60	=60	=60	=60	=60
0r	2G	0r	4g]	4dd
.	.	.	4f	4ee-i
.	2B-y	.	4e	1dd
.	.	.	4d	.
.	1A	.	1e	.
.	.	.	.	2cc#i
=61	=61	=61	=61	=61
0r	0r	2r	1d	1dd
.	.	1B-y	.	.
.	.	.	1f	2r
.	.	2F	.	[2cc
=62	=62	=62	=62	=62
1r	0r	1G	2e	2cc]
.	.	.	1d	2b-y
2r	.	2.D	.	2.a
[2F	.	.	4c	.
.	.	4E	4B-y	4g
=63	=63	=63	=63	=63
2F]	1r	4F	4A	2f
.	.	4G	4G	.
2C	.	2.A	2c	2e
2.D	2r	.	1F	1d
.	.	4G	.	.
.	[2F	[2B-y	.	.
4C	.	.	.	.
=64	=64	=64	=64	=64
2AA	2F]	2B-]	1r	1c
2C	2E	2A	.	.
1BB-y	1D	2G	2r	1r
.	.	2F	[2f	.
=65	=65	=65	=65	=65
1AA	2C	1c	2f]	1r
.	2.c	.	2e	.
1r	.	2.F	2f	2r
.	4B-y	.	.	.
.	4A	.	[2a	[2cc
.	4G	4E	.	.
=66	=66	=66	=66	=66
1r	2A	2F	4a]	2cc]
.	.	.	4g	.
.	2.d	2G	2.g	2b-y
2r	.	1D	.	2a
.	4c	.	4f	.
2D	4B-y	.	2f	[2dd
.	4A	.	.	.
=67	=67	=67	=67	=67
2E	2G	1r	2g	4dd]
.	.	.	.	4cc
2F	2A	.	4f	1cc
.	.	.	4e	.
1G	2B-y	2r	1d	.
.	[2G	2d	.	2bnXi
=68	=68	=68	=68	=68
1.C	2G]	2.e-X	1c	1cc
.	1c	.	.	.
.	.	4d	.	.
.	.	2e-i	1r	1r
2D	2B-y	[2d	.	.
=69	=69	=69	=69	=69
2E	1c	4d]	2r	0r
.	.	4c	.	.
2F	.	1c	2c	.
1D	1F	.	1d	.
.	.	2BnXi	.	.
=70	=70	=70	=70	=70
0C	2r	0c	1e	1r
.	2G	.	.	.
.	2A	.	[1e	2r
.	[2c	.	.	2g
=71	=71	=71	=71	=71
0r	4c]	0r	1e]	2a
.	4B-y	.	.	.
.	4A	.	.	2.cc
.	4G	.	.	.
.	2A	.	[1c	.
.	.	.	.	4b-y
.	[2F	.	.	4a
.	.	.	.	4g
=72	=72	=72	=72	=72
0r	2F]	1r	2c]	2a
.	2E	.	2c	1g
.	1D	2r	2d	.
.	.	2F	[2f	2f
=73	=73	=73	=73	=73
1r	2C	1c	2f]	1g
.	2.c	.	2e	.
2r	.	2A	1f	2c
.	4B-y	.	.	.
2D	4A	2F	.	[2a
.	4G	.	.	.
=74	=74	=74	=74	=74
1D	1F	2A	0r	4a]
.	.	.	.	4g
.	.	2B-y	.	1f
1C	1G	1c	.	.
.	.	.	.	2e
=75	=75	=75	=75	=75
1.F	2r	2r	2r	0f
.	2F	2A	2c	.
.	[1F	2A	2c	.
2E	.	2A	2c	.
=76	=76	=76	=76	=76
2D	2F]	2B-y	2d	0r
2C	2E	2c	2e	.
2.BB-y	2D	2.d	1f	.
.	2D	.	.	.
4AA	.	4c	.	.
=77	=77	=77	=77	=77
2GG	1G	4B-y	2e	0r
.	.	4A	.	.
2BB-y	.	2B-y	1d	.
1AA	2E	2c	.	.
.	2C	2F	[2c	.
=78	=78	=78	=78	=78
1GG	1D	2.G	2c]	2r
.	.	.	2BnXi	2g
.	.	4F	.	.
1r	2C	4E	4c	1g
.	.	4D	4B-y	.
.	2c	2E	4A	.
.	.	.	4G	.
=79	=79	=79	=79	=79
1r	2.d	1D	1A	1f
.	4c	.	.	.
2r	4B-y	1r	1G	[1b-y
.	4A	.	.	.
2G	[2d	.	.	.
=80	=80	=80	=80	=80
1G	4d]	0r	2r	1b-]
.	4c	.	.	.
.	2B-y	.	2d	.
1F	1A	.	2.f	1cc
.	.	.	4e	.
=81	=81	=81	=81	=81
1.B-y	0r	2r	4f	1.dd
.	.	.	4d	.
.	.	2G	1g	.
.	.	2G	.	.
2A	.	2A	2c	2cc
=82	=82	=82	=82	=82
2G	1r	2B-y	1d	2b-y
2F	.	1c	.	2a
2.E-X	2r	.	2G	2.g
.	2G	2B-y	[2g	.
4D	.	.	.	4f
=83	=83	=83	=83	=83
2C	1G	4c	2g]	2e
.	.	4B-y	.	.
2E-i	.	4A	2e	2c
.	.	4G	.	.
1D	1F	1A	2f	1d
.	.	.	[2d	.
=84	=84	=84	=84	=84
1GG	1.B-y	2r	2d]	1.dd
.	.	2G	2.g	.
1r	.	2G	.	.
.	.	.	4f	.
.	2A	2A	4f	2cc
.	.	.	4e	.
=85	=85	=85	=85	=85
0r	2G	2B-y	2g	2b-y
.	2F	1c	2c	2a
.	2.E-X	.	[1e-X	4g
.	.	.	.	4f
.	.	2B-y	.	2b-y
.	4D	.	.	.
=86	=86	=86	=86	=86
0r	2C	4c	2e-]	2a
.	.	4B-y	.	.
.	2E-i	4A	2c	1g
.	.	4G	.	.
.	1D	1A	1d	.
.	.	.	.	2f#i
=87	=87	=87	=87	=87
00GG	00D	00G	00d	00g
=88||	=88||	=88||	=88||	=88||
*M2/1	*M2/1	*M2/1	*M2/1	*M2/1
*met(C|)	*met(C|)	*met(C|)	*met(C|)	*met(C|)
!!section: Secunda pars: Eia ergo
!!!OMD: Secunda pars: Eia ergo
1.BB-y	0r	0r	0B-y	0r
2C	.	.	.	.
=89	=89	=89	=89	=89
1D	0r	0F	1A	0r
1BB-y	.	.	[1B-y	.
=90	=90	=90	=90	=90
1.E-i	0B-y	0G	2B-]	0r
.	.	.	2A	.
.	.	.	2G	.
2D	.	.	2F	.
=91	=91	=91	=91	=91
2C	0c	1E	1G	0r
2BB-y	.	.	.	.
2.AA	.	[1F	1A	.
4GG	.	.	.	.
=92	=92	=92	=92	=92
1BB-y	0B-y	1F]	1r	0r
1r	.	1G	1d	.
=93	=93	=93	=93	=93
1.F	0A	1A	1c	0r
.	.	[1c	[1f	.
2G	.	.	.	.
=94	=94	=94	=94	=94
1A	0c	2c]	2f]	0r
.	.	2B-y	2e	.
1F	.	1A	1f	.
=95	=95	=95	=95	=95
1.B-y	1.d	1G	1g	0r
.	.	[1d	1G	.
2A	2c	.	.	.
=96	=96	=96	=96	=96
2G	2B-y	1d]	1.g	0r
2F	2A	.	.	.
1E	1G	1c	.	.
.	.	.	4f	.
.	.	.	4e	.
=97	=97	=97	=97	=97
0D	0A	1.d	0f	0r
.	.	4c	.	.
.	.	4B-y	.	.
=98	=98	=98	=98	=98
0r	1.c	0A	1r	0r
.	.	.	[1c	.
.	2B-y	.	.	.
=99	=99	=99	=99	=99
0F	2A	1r	2c]	0r
.	2G	.	2B-y	.
.	2F	[1c	1A	.
.	4E	.	.	.
.	4D	.	.	.
=100	=100	=100	=100	=100
1C	1E	1c]	1G	0r
[1D	2r	2B-y	2F	.
.	4D	[2A	[2f	.
.	4E	.	.	.
=101	=101	=101	=101	=101
2D]	4F	4A]	4f]	0r
.	4G	4G	4e	.
2C	1A	2E	2.e	.
1BB-y	.	2F	.	.
.	.	.	4d	.
.	2G	2D	[2d	.
=102	=102	=102	=102	=102
1AA	1A	1E	2d]	0r
.	.	.	2c#i	.
[1A	2.D	2r	[1d	.
.	.	[2D	.	.
.	4E	.	.	.
=103	=103	=103	=103	=103
1A]	4F	4D]	2d]	0r
.	4G	4E	.	.
.	4A	2.F	4c	.
.	4B-y	.	4B-y	.
1F	4c	.	2A	.
.	4B-y	4G	.	.
.	4c	2A	2a	.
.	4d	.	.	.
=104	=104	=104	=104	=104
1G	2e-i	2.B-y	2.g	0r
.	1d	.	.	.
.	.	8AL	4f	.
.	.	8B-yJ	.	.
1A	.	2c	2e	.
.	2c	2A	[2a	.
=105	=105	=105	=105	=105
0D	0d	2.B-y	4a]	0r
.	.	.	4g	.
.	.	.	1g	.
.	.	4G	.	.
.	.	4A	.	.
.	.	4D	.	.
.	.	2d	2f#i	.
=106	=106	=106	=106	=106
2r	2r	2G	0g	0r
1G	4G	2.d	.	.
.	4A	.	.	.
.	4B-y	.	.	.
.	4c	4c	.	.
2G	[2d	2B-y	.	.
=107	=107	=107	=107	=107
2.F	2d]	1A	0r	0r
.	2c	.	.	.
4E	.	.	.	.
2F	1d	2r	.	.
[2G	.	4G	.	.
.	.	4A	.	.
=108	=108	=108	=108	=108
4G]	1r	4B-y	2r	0r
4F	.	4c	.	.
4E	.	1d	1g	.
4D	.	.	.	.
1E	2r	.	.	.
.	4G	2c#i	2g	.
.	4A	.	.	.
=109	=109	=109	=109	=109
1D	4B-y	2.d	2.f	0r
.	4c	.	.	.
.	2.d	.	.	.
.	.	4c	4e	.
1r	.	4B-y	2f	.
.	4c	4A	.	.
.	4B-y	4G	[2g	.
.	4A	4F	.	.
=110	=110	=110	=110	=110
0r	2G	4E	4g]	0r
.	.	4D	4f	.
.	2B-y	2d	4e	.
.	.	.	4d	.
.	1A	2d	1e	.
.	.	2c#i	.	.
=111	=111	=111	=111	=111
2r	2r	2.d	1d	0r
2G	2d	.	.	.
.	.	8cL	.	.
.	.	8B-yJ	.	.
2.F	2d	4A	1r	.
.	.	4G	.	.
.	2c	2A	.	.
4E	.	.	.	.
=112	=112	=112	=112	=112
2D	2d	1B-y	2r	0r
2E	4c	.	2g	.
.	4B-y	.	.	.
1F	4A	2r	2.f	.
.	4G	.	.	.
.	2A	2F	.	.
.	.	.	4e	.
=113	=113	=113	=113	=113
[0BB-y	2B-y	2F	1d	0r
.	2.d	2F	.	.
.	.	1G	2.B-y	.
.	4c	.	.	.
.	[2B-y	.	.	.
.	.	.	4c	.
=114	=114	=114	=114	=114
0BB-]	2B-]	1F	4d	0r
.	.	.	4e	.
.	4A	.	2.f	.
.	4G	.	.	.
.	2F	2.B-y	.	.
.	.	.	4e	.
.	[2B-y	.	4d	.
.	.	4A	4c	.
=115	=115	=115	=115	=115
0r	4B-]	2G	1d	0r
.	4A	.	.	.
.	2.A	2.F	.	.
.	.	.	2c	.
.	4G	4G	.	.
.	[2G	2E	2G	.
=116	=116	=116	=116	=116
0r	2G]	1D	2A	0r
.	2F	.	2.B-y	.
.	4G	2r	.	.
.	4A	.	4A	.
.	4B-y	2G	2G	.
.	4c	.	.	.
=117	=117	=117	=117	=117
1D	4d	2A	2F	0r
.	4e	.	.	.
.	2.d	1B-y	2f	.
2E	.	.	2g	.
.	4c	.	.	.
[2F	2c	4A	[2a	.
.	.	4G	.	.
=118	=118	=118	=118	=118
4F]	2A	1F	4a]	0r
4E	.	.	4g	.
2D	2B-y	.	1f	.
1C	1c	1G	.	.
.	.	.	2e	.
=119	=119	=119	=119	=119
2AA	1r	[0F	2f	0r
1BB-y	.	.	1d	.
.	1B-y	.	.	.
4AA	.	.	4c	.
4GG	.	.	4B-y	.
=120	=120	=120	=120	=120
2FF	2c	0F]	1A	0r
2.F	2.d	.	.	.
.	.	.	2r	.
4E	4c	.	.	.
2D	[2B-y	.	2f	.
=121	=121	=121	=121	=121
2C	2B-]	1r	2e	0r
2.D	2A	.	2.f	.
.	[1B-y	1F	.	.
4C	.	.	4e	.
4BB-y	.	.	[2d	.
4AA	.	.	.	.
=122	=122	=122	=122	=122
1GG	1B-]	1G	4d]	0r
.	.	.	4c	.
.	.	.	4B-y	.
.	.	.	4A	.
2r	1d	1B-y	1G	.
[2G	.	.	.	.
=123	=123	=123	=123	=123
2G]	2d	2.A	0r	0r
2F	2d	.	.	.
.	.	4B-y	.	.
2E	2G	2c	.	.
2D	[2B-y	[2d	.	.
=124	=124	=124	=124	=124
1E	2B-]	2d]	2r	0r
.	4A	2c#i	1g	.
.	4G	.	.	.
1D	1A	1d	.	.
.	.	.	2f	.
=125	=125	=125	=125	=125
1r	1G	2r	2e	0r
.	.	2B-y	2d	.
2r	2r	2A	1e	.
[2G	[2B-y	4G	.	.
.	.	4A	.	.
=126	=126	=126	=126	=126
2G]	2B-]	4B-y	2d	0r
.	.	4c	.	.
2F	2A	2d	2.f	.
2E	2B-y	2G	.	.
.	.	.	4g	.
2D	2F	2d	[2a	.
=127	=127	=127	=127	=127
1E	4G	2B-y	4a]	0r
.	4A	.	4g	.
.	4B-y	2G	1g	.
.	4c	.	.	.
1D	1d	1A	.	.
.	.	.	2f#i	.
=128	=128	=128	=128	=128
00GG	00d	00G	00g	00r
=129||	=129||	=129||	=129||	=129||
*M2/1	*M2/1	*M2/1	*M2/1	*M2/1
*met(C|)	*met(C|)	*met(C|)	*met(C|)	*met(C|)
!!section: Secunda pars: Et Jesum
!!!OMD: Secunda pars: Et Jesum
[0G	0G	1r	0d	0g
.	.	[1G	.	.
=130	=130	=130	=130	=130
0G]	0B-y	2G]	1G	1.d
.	.	2A	.	.
.	.	2B-y	[1d	.
.	.	2c	.	2e
=131	=131	=131	=131	=131
1D	1A	0d	2d]	1f
.	.	.	2c	.
[1G	1G	.	1B-y	1g
=132	=132	=132	=132	=132
2G]	1d	0D	0A	1r
4F#i	.	.	.	.
4E	.	.	.	.
1F#i	2r	.	.	1dd
.	2D	.	.	.
=133	=133	=133	=133	=133
1G	1E	1r	1G	1b-y
[1GG	2D	1G	1g	[1dd
.	2d	.	.	.
=134	=134	=134	=134	=134
2GG]	2B-y	1G	1d	2dd]
2AA	2c	.	.	2cc
2BB-y	1d	2.D	[1g	1b-y
2C	.	.	.	.
.	.	4E	.	.
=135	=135	=135	=135	=135
0D	1r	2F	2g]	1a
.	.	2G	4f#i	.
.	.	.	4e	.
.	1D	1A	1f#i	[1dd
=136	=136	=136	=136	=136
[0GG	1.G	1.B-y	[0g	2dd]
.	.	.	.	2cc
.	.	.	.	2.b-y
.	4F	2G	.	.
.	4E	.	.	4a
=137	=137	=137	=137	=137
0GG]	0D	0G	0g]	0b-y
=138	=138	=138	=138	=138
1.G	1r	1G	0d	0r
.	1G	1B-y	.	.
2F	.	.	.	.
=139	=139	=139	=139	=139
1E	1G	1c	1e	0r
1D	1A	[1d	[1f	.
=140	=140	=140	=140	=140
0r	2.B-y	2d]	2f]	0r
.	.	8cL	4e	.
.	.	8B-y	.	.
.	4A	8A	4d	.
.	.	8GJ	.	.
.	4G	2.B-y	2e	.
.	4F	.	.	.
.	[2G	.	[2d	.
.	.	4A	.	.
=141	=141	=141	=141	=141
0r	4G]	2G	4d]	1r
.	4C	.	4c	.
.	1c	2F	2A	.
.	.	1G	2B-y	[1g
.	2B-y	.	[2G	.
=142	=142	=142	=142	=142
0r	2c	0C	2G]	1g]
.	2e-i	.	2.g	.
.	1d	.	.	1a
.	.	.	4f#i	.
.	.	.	4f#i	.
.	.	.	4e	.
=143	=143	=143	=143	=143
1.G	1r	2r	2g	1.b-y
.	.	2G	2d	.
.	1G	1B-y	1d	.
2F	.	.	.	2a
=144	=144	=144	=144	=144
1E	1G	1c	1e	1g
1D	1A	1d	1f	2r
.	.	.	.	2f
=145	=145	=145	=145	=145
2.BB-y	2.B-y	2r	1d	2g
.	.	2D	.	1f
4C	4A	.	.	.
2D	2B-y	2F	1r	.
2E	2c	2G	.	4e
.	.	.	.	4d
=146	=146	=146	=146	=146
1F	2A	2.A	2r	2c
.	4G	.	2.c	1f
.	4F	4B-y	.	.
1C	1G	[1c	.	.
.	.	.	4B-y	.
.	.	.	2G	2e
=147	=147	=147	=147	=147
2r	1F	1c]	1A	1f
1F	.	.	.	.
.	1r	1c	2G	1r
2E	.	.	[2g	.
=148	=148	=148	=148	=148
1D	2r	2B-y	2g]	0r
.	2F	1A	2f	.
[1C	2.c	.	2.e	.
.	.	4G	.	.
.	4B-y	4F	4d	.
=149	=149	=149	=149	=149
2C]	4A	1E	0c	0cc
.	4G	.	.	.
2BB-y	1G	.	.	.
1AA	.	1A	.	.
.	2F#i	.	.	.
=150	=150	=150	=150	=150
1GG	4G	0D	2r	1b-y
.	4A	.	.	.
.	4B-y	.	1g	.
.	4c	.	.	.
1r	1d	.	.	1a
.	.	.	2f#i	.
=151	=151	=151	=151	=151
1r	1G	2r	2g	2.g
.	.	1d	2.G	.
.	.	.	.	4a
[1G	1r	.	.	4b-y
.	.	.	4A	4cc
.	.	2d	[2B-y	[2dd
=152	=152	=152	=152	=152
2G]	0r	2B-y	4B-]	4dd]
.	.	.	4c	4g
2F	.	2c	2A	1cc
[1E-X	.	2.e-i	1G	.
.	.	.	.	2b-y
.	.	4d	.	.
=153	=153	=153	=153	=153
2E-]	2r	2c	1r	2cc
2D	2F	2B-y	.	2f
1C	1c	1e-i	2r	2g
.	.	.	2c	2a
=154	=154	=154	=154	=154
1.BB-y	2F	1.d	2.f	2.b-y
.	1B-y	.	.	.
.	.	.	4e	4a
.	.	.	4d	4f
.	.	.	4c	4g
2C	4A	4c	[2e	[2a
.	4G	4B-y	.	.
=155	=155	=155	=155	=155
2D	2F	2A	2e]	2a]
2BB-y	2G	2D	2d	1g
2C	1A	2r	2c	.
2D	.	[2D	4B-y	2f#i
.	.	.	4A	.
=156	=156	=156	=156	=156
1GG	0G	2D]	2.B-y	0g
.	.	1d	.	.
.	.	.	4c	.
2r	.	.	2d	.
2C	.	2c	2e-i	.
=157	=157	=157	=157	=157
4C	2.G	1e	1c	0r
4D	.	.	.	.
4E	.	.	.	.
4F	4A	.	.	.
4G	4B-y	2d	1r	.
4A	4c	.	.	.
[2B-y	[2d	2D	.	.
=158	=158	=158	=158	=158
4B-]	2d]	1E	0r	0r
4A	.	.	.	.
2G	2c#i	.	.	.
2F	1d	2D	.	.
[2G	.	2d	.	.
=159	=159	=159	=159	=159
4G]	1G	4e-i	2r	0r
4F	.	4d	.	.
4E	.	4c	2.G	.
4D	.	4B-y	.	.
1E	1r	2c	.	.
.	.	.	4A	.
.	.	[2B-y	4B-y	.
.	.	.	4c	.
=160	=160	=160	=160	=160
0D	1r	2B-]	4d	2r
.	.	.	4e	.
.	.	4A	2.f	2.d
.	.	4G	.	.
.	2.D	1F	.	.
.	.	.	4e	4e
.	.	.	2d	4f
.	4E	.	.	4g
=161	=161	=161	=161	=161
0r	4F	0r	4c	4a
.	4G	.	4B-y	4b-y
.	4A	.	4A	2.cc
.	4B-y	.	4G	.
.	4c	.	2F	.
.	4d	.	.	4b-y
.	[2e	.	[2c	2a
=162	=162	=162	=162	=162
0r	4e]	1r	2c]	4g
.	4d	.	.	4f
.	1d	.	2d	4e
.	.	.	.	4d
.	.	2r	1A	1e
.	2c#i	2A	.	.
=163	=163	=163	=163	=163
0r	2d	4B-y	1d	2d
.	.	4A	.	.
.	2G	4B-y	.	2.dd
.	.	4c	.	.
.	4B-y	2d	1r	.
.	4A	.	.	4cc
.	4B-y	4G	.	2ee-i
.	4c	4A	.	.
=164	=164	=164	=164	=164
0r	2d	2B-y	2r	4dd
.	.	.	.	4cc
.	2e	2c	2g	2.cc
.	1d	2G	4g	.
.	.	.	4f	4b-y
.	.	2B-y	4e	2b-y
.	.	.	4d	.
=165	=165	=165	=165	=165
2r	1c	4A	2e	1cc
.	.	4G	.	.
2.A	.	4F	2.f	.
.	.	4E	.	.
.	1r	2.D	.	1r
4G	.	.	4e	.
2B-y	.	.	2d	.
.	.	4E	.	.
=166	=166	=166	=166	=166
2A	2r	2F	4c	0r
.	.	.	4B-y	.
2.G	2.d	2G	4A	.
.	.	.	4G	.
.	.	2D	1A	.
4E	4c	.	.	.
2F	2A	[2d	.	.
=167	=167	=167	=167	=167
2G	2B-y	4d]	1G	0r
.	.	4c	.	.
2C	2.G	1c	.	.
1D	.	.	2r	.
.	4E	.	.	.
.	2F	2BnXi	2d	.
=168	=168	=168	=168	=168
1C	2G	1c	2e	1g
.	2E	.	1g	.
1r	1D	1r	.	1a
.	.	.	2f#i	.
=169	=169	=169	=169	=169
0r	1G	2r	4g	1b-y
.	.	.	4f	.
.	.	2G	4e	.
.	.	.	4d	.
.	2r	2A	2c	2a
.	2G	2B-y	2B-y	[2g
=170	=170	=170	=170	=170
1r	2A	1c	2A	4g]
.	.	.	.	4f
.	2B-y	.	2F	1f
2r	1c	2C	1G	.
2C	.	[2c	.	2e
=171	=171	=171	=171	=171
2.D	2A	4c]	1F	0f
.	.	4B-y	.	.
.	1d	1B-y	.	.
4E	.	.	.	.
1F	.	.	2r	.
.	[2c	2A	2c	.
=172	=172	=172	=172	=172
1.BB-y	4c]	2B-y	2d	0r
.	4B-y	.	.	.
.	2.B-y	2F	2.f	.
.	.	1B-y	.	.
.	4A	.	4e	.
2C	2G	.	[2e	.
=173	=173	=173	=173	=173
1D	1F	1A	4e]	0r
.	.	.	4d	.
.	.	.	1d	.
1E-i	1r	2r	.	.
.	.	2G	2c	.
=174	=174	=174	=174	=174
[0D	1r	2B-y	0d	2r
.	.	2A	.	2a
.	2r	4D	.	2b-y
.	.	4E	.	.
.	2A	4F	.	2a
.	.	4G	.	.
=175	=175	=175	=175	=175
0D_	2B-y	2F	2r	4d
.	.	.	.	4e
.	2A	2D	2A	4f
.	.	.	.	4g
.	2r	1d	2B-y	4f
.	.	.	.	4g
.	2A	.	2A	[2a
=176	=176	=176	=176	=176
0D]	1B-y	2r	0d	4a]
.	.	.	.	4g
.	.	2D	.	1g
.	1A	1F	.	.
.	.	.	.	2f#i
=177	=177	=177	=177	=177
0GG	0G	1D	1r	0g
.	.	2r	[1d	.
.	.	2G	.	.
=178	=178	=178	=178	=178
0r	0r	2.B-y	0d]	2r
.	.	.	.	2d
.	.	4c	.	.
.	.	2d	.	2.f
.	.	2D	.	.
.	.	.	.	4g
=179	=179	=179	=179	=179
0r	0r	2.F	0c	1a
.	.	4G	.	.
.	.	1A	.	2r
.	.	.	.	2a
=180	=180	=180	=180	=180
0r	0r	1.G	0d	2.b-y
.	.	.	.	4g
.	.	.	.	2b-y
.	.	4F	.	[2a
.	.	4E	.	.
=181	=181	=181	=181	=181
0r	0r	2D	0r	4a]
.	.	.	.	4g
.	.	2A	.	4f
.	.	.	.	4e
.	.	2B-y	.	2d
.	.	2G	.	[2dd
=182	=182	=182	=182	=182
0r	0r	1B-y	0f	2dd]
.	.	.	.	4cc
.	.	.	.	4b-y
.	.	1A	.	2cc
.	.	.	.	2a
=183	=183	=183	=183	=183
0r	0r	0r	0g	2b-y
.	.	.	.	2g
.	.	.	.	1b-y
=184	=184	=184	=184	=184
0r	0r	2r	2.f	2.a
.	.	2A	.	.
.	.	.	4e	4g
.	.	2B-y	4d	4f
.	.	.	4c	4e
.	.	2G	[2e	[2g
=185	=185	=185	=185	=185
0r	0r	1B-y	4e]	4g]
.	.	.	4d	4f
.	.	.	1d	4e
.	.	.	.	4d
.	.	1A	.	1e
.	.	.	2c#i	.
=186	=186	=186	=186	=186
[0D	2r	0r	0d	0d
.	2A	.	.	.
.	2B-y	.	.	.
.	[2A	.	.	.
=187	=187	=187	=187	=187
0D]	4A]	2r	0r	0r
.	4G	.	.	.
.	4F	2A	.	.
.	4E	.	.	.
.	4F	2B-y	.	.
.	4G	.	.	.
.	4A	[2A	.	.
.	4B-y	.	.	.
=188	=188	=188	=188	=188
0C	2.c	2A]	0r	0r
.	.	4G	.	.
.	4B-y	4F	.	.
.	2G	1E	.	.
.	[2A	.	.	.
=189	=189	=189	=189	=189
0D	4A]	2r	2r	0r
.	4G	.	.	.
.	4F	2A	2.d	.
.	4E	.	.	.
.	2D	2.B-y	.	.
.	.	.	4c	.
.	2d	.	8dL	.
.	.	.	8c	.
.	.	4A	8B-y	.
.	.	.	8AJ	.
=190	=190	=190	=190	=190
0r	2e	2G	2B-y	0r
.	1d	2F	1A	.
.	.	1E	.	.
.	2c#i	.	2G	.
=191	=191	=191	=191	=191
0F	1d	1D	1A	0r
.	1A	2r	1r	.
.	.	[2d	.	.
=192	=192	=192	=192	=192
0G	2r	4d]	2r	0r
.	.	4c	.	.
.	2d	1B-y	4G	.
.	.	.	4A	.
.	2e	.	4B-y	.
.	.	.	4c	.
.	[2d	4A	4d	.
.	.	4G	4e	.
=193	=193	=193	=193	=193
2.F	2d]	2.A	2f	0r
.	2c	.	4F	.
4E	.	4G	4G	.
2D	2d	2F	4A	.
.	.	.	4B-y	.
2C	[2G	[2E	2c	.
=194	=194	=194	=194	=194
1D	2G]	4E]	2B-y	0r
.	.	4D	.	.
.	2F	1d	2.A	.
1AA	1E	.	.	.
.	.	.	4G	.
.	.	2c#i	2A	.
=195	=195	=195	=195	=195
2r	4D	1d	0F	[0dd
.	4E	.	.	.
2.D	4F	.	.	.
.	4G	.	.	.
.	2A	2r	.	.
4C	.	.	.	.
4BB-y	[2B-y	[2D	.	.
4AA	.	.	.	.
=196	=196	=196	=196	=196
2GG	2B-]	2D]	1r	0dd]
2.D	4A	2.F	.	.
.	4G	.	.	.
.	1A	.	[1f	.
4E	.	4E	.	.
[2F	.	2D	.	.
=197	=197	=197	=197	=197
2F]	0r	1A	1f]	0cc
4E	.	.	.	.
4D	.	.	.	.
1A	.	1c	1e	.
=198	=198	=198	=198	=198
0r	2r	2.B-y	0d	0dd
.	2G	.	.	.
.	.	8AL	.	.
.	.	8GJ	.	.
.	2A	2F	.	.
.	[2B-y	[2G	.	.
=199	=199	=199	=199	=199
0r	2B-]	4G]	2r	1g
.	.	4F	.	.
.	4A	2E	1g	.
.	4G	.	.	.
.	2d	2D	.	2a
.	2D	[2d	2f	[2b-y
=200	=200	=200	=200	=200
0r	1E	2d]	2g	2b-]
.	.	2c#i	2e	2g
.	2D	1d	2f	2a
.	[2G	.	4B-y	[2b-y
.	.	.	4c	.
=201	=201	=201	=201	=201
0r	4G]	1G	4d	4b-]
.	4F	.	4e	4a
.	4E	.	1d	4g
.	4D	.	.	4f
.	1E	2r	.	1g
.	.	2G	2c#i	.
=202	=202	=202	=202	=202
2r	2D	2A	1d	1f
2D	1d	1B-y	.	.
2E	.	.	1r	1r
[2F	2c	4A	.	.
.	.	4G	.	.
=203	=203	=203	=203	=203
2F]	1d	2A	2r	1r
4E	.	2B-y	2d	.
4D	.	.	.	.
1A	2r	4c	2e	2r
.	.	4B-y	.	.
.	[2D	4A	2d	2a
.	.	4G	.	.
=204	=204	=204	=204	=204
2r	4D]	4F	2.f	4a
.	4E	4D	.	4g
2D	2F	2d	.	4a
.	.	.	8eL	4b-y
.	.	.	8fJ	.
2E	2G	2c	2e	2.cc
[2F	2A	[2A	2c	.
.	.	.	.	4b-y
=205	=205	=205	=205	=205
2F]	1F	2A]	1f	4a
.	.	.	.	4g
4E	.	1d	.	2.a
4D	.	.	.	.
1A	2r	.	1e	.
.	.	.	.	4g
.	2A	2c#i	.	2a
=206	=206	=206	=206	=206
2r	4B-y	1d	2.d	2f
.	4A	.	.	.
2D	4B-y	.	.	1d
.	4c	.	4c	.
2E	2G	2r	2B-y	.
[2F	2A	2F	2A	2c
=207	=207	=207	=207	=207
2F]	1d	4A	2r	2d
.	.	4B-y	.	.
4E	.	4A	2.a	1dd
4D	.	4B-y	.	.
1A	1e	1c	.	.
.	.	.	4g	.
.	.	.	2a	2cc
=208	=208	=208	=208	=208
1D	2d	1A	2f	1dd
.	2A	.	2d	.
1C	[1c	1r	[1e-X	1g
=209	=209	=209	=209	=209
1.E-i	2c]	2.G	2e-]	[1g
.	2B-y	.	4d	.
.	.	4A	4c	.
.	1G	4B-y	[1e-i	2.g]
.	.	4A	.	.
2D	.	[2B-y	.	.
.	.	.	.	4f
=210	=210	=210	=210	=210
1C	1c	2B-]	2e-]	2g
.	.	2A	2d	2a
1BB-y	2.d	2G	[1d	2.b-y
.	.	2F	.	.
.	4c	.	.	4a
=211	=211	=211	=211	=211
0E-i	4B-y	1G	2d]	4b-y
.	4A	.	.	4g
.	4G	.	4c	2.cc
.	4F	.	4B-y	.
.	1G	1C	1c	.
.	.	.	.	4b-y
.	.	.	.	4a
.	.	.	.	4g
=212	=212	=212	=212	=212
0D	0A	1r	0d	2f
.	.	.	.	1g
.	.	1F	.	.
.	.	.	.	2f#i
=213	=213	=213	=213	=213
1r	[0Gl	2.B-y	2r	[0gl
.	.	.	2G	.
.	.	4A	.	.
1C	.	4G	1c	.
.	.	4F	.	.
.	.	[2G	.	.
=214	=214	=214	=214	=214
1.E-X	0G_	4G]	1B-y	0g_
.	.	4F	.	.
.	.	4E	.	.
.	.	4D	.	.
.	.	1C	[1e-X	.
2D	.	.	.	.
=215	=215	=215	=215	=215
1C	0G_	2r	2e-]	0g_
.	.	2G	4d	.
.	.	.	4c	.
1BB-y	.	2.B-y	[1d	.
.	.	4A	.	.
=216	=216	=216	=216	=216
0C	0G_	4G	2d]	0g_
.	.	4F	.	.
.	.	4E	4c	.
.	.	4D	4B-y	.
.	.	1E	1c	.
=217	=217	=217	=217	=217
00GGl	00G]	00Dl	00dl	00g]
==	==	==	==	==
*-	*-	*-	*-	*-
!!!system-decoration: [*]
!!!RDF**kern: i = editorial accidental
!!!RDF**kern: l = terminal long
!!!ENC: Benjamin Ory
!!!END: 2024/6/4
!!!EED: Benjamin Ory
!!!EEV: 2024/06/04
!!!YEC: Copyright 2024 Benjamin Ory, All Rights Reserved
!!!ONB: Translated from MusicXML on 2024/06/04